X:1
T:The Boy\'is Lament For His Dragon
C:William Mackay
M:4/4
L:1/8
R:march
K:D
Af e<d f4 | (g2B2) B2(cd) | e>f e<c A2A<B |
(A2d2) d2(ef) | g>f e<d f4 | (g2B2) f>e d<c | d4 d2 ::
f<g | a2A2 A2((3AB=c) | B2G2 A2Ad c<B A2f<g |
a2A2 A2((3AB=c) | B2G2 A2Ae d<c | d4 d2 :|
